X: 11
T:Greenwich Park
T:John Malchair's Third Collection of Tunes
%%VWML:Malchair-3619-p11
F:https://www.vwml.org/record/Malchair/3619/p11
F:www.vwml.org/topics/historic-dance-and-tune-books/Malchair
Z:Steve Mansfield Jan 2020
M:C|
L:1/4
K:F
F2c2 | A3d | cAGF | GEDC | F2c2 | A3d | cfdg | f4 ||
e2g2 | c3e | fccA | d3c | dBBG | EGCc | (BA) (GF) | F4 |]
W:
T:The Coronation Day
T:John Malchair's Third Collection of Tunes
F:https://www.vwml.org/record/Malchair/3619/p11
F:www.vwml.org/topics/historic-dance-and-tune-books/Malchair
M:C|
L:1/4
K:F
c | fefc | f2c>c | d(c/B/)Gc | AF2 || A | B>c d(c/B/) | A>G FA | 
B>c d(c/B/) | A>B c(B/A/) | G/F/G/A/ B/A/B/c/ | d>efA | BAGc | AF2 |] 
W:
T:Put in All (From ed 18)
T:John Malchair's Third Collection of Tunes
F:https://www.vwml.org/record/Malchair/3619/p11
F:www.vwml.org/topics/historic-dance-and-tune-books/Malchair
M:C|
L:1/4
K:F
A | Adde | f2gf | eceg | f3e | f^cde | f2ed | A3 || e | 
fgab \ c'2ba | gfed | ^c3A | Adde | f2a^c | d2d^c | d3 |]

